F1 Grump/assets/track outlines/Circuit of the Americas - White.svg

<svg xmlns="http://www.w3.org/2000/svg" viewBox="0 0 4451.55 3190.95"><defs><style>.cls-1{fill:#fff;}</style></defs><title>Circuit of the Americas - White</title><g id="Layer_2" data-name="Layer 2"><g id="Layer_1-2" data-name="Layer 1"><path class="cls-1" d="M390.76,3183.6q-36,7.35-64.75,7.35t-46.37-7.87a58,58,0,0,1-27.3-24.5,113.55,113.55,0,0,1-13.3-38.15q-3.67-21.53-3.68-53.73t3.68-54.07q3.68-21.87,13.3-38.68a57,57,0,0,1,27.12-24.5q17.51-7.69,45.5-7.7t65.8,7.7l-1.05,22.75q-35.35-6.3-63-6.3-38.5,0-50.92,22.93t-12.43,78.22q0,27.66,2.28,44.45a97.43,97.43,0,0,0,8.92,30.28q6.65,13.47,19.43,19.25t37.45,5.77q24.68,0,58.27-6.3Z"/><path class="cls-1" d="M434.86,3187.45v-242.2h26.95v242.2Z"/><path class="cls-1" d="M547.91,3094.7v92.75H521v-242.2h89.6q38.49,0,57.92,17.85t19.43,55.65q0,56-44.45,70.35L690,3187.45H660.26l-43.75-92.75Zm63-23.8q49.35,0,49.35-50.92t-49.7-50.93H547.91V3070.9Z"/><path class="cls-1" d="M882.86,3183.6Q846.8,3191,818.11,3191t-46.38-7.87a58.08,58.08,0,0,1-27.3-24.5,113.55,113.55,0,0,1-13.3-38.15q-3.68-21.53-3.68-53.73t3.68-54.07q3.68-21.87,13.3-38.68a57,57,0,0,1,27.13-24.5q17.49-7.69,45.5-7.7t65.8,7.7l-1.05,22.75q-35.37-6.3-63-6.3-38.52,0-50.93,22.93t-12.43,78.22q0,27.66,2.28,44.45a97.43,97.43,0,0,0,8.92,30.28q6.65,13.47,19.43,19.25t37.45,5.77q24.68,0,58.28-6.3Z"/><path class="cls-1" d="M952.15,3114.65q0,52.5,56.7,52.5,29.4,0,44.28-12.42t14.87-40.08v-169.4h26.6V3114q0,40.61-21.52,58.8t-63.53,18.2q-42,0-63.17-18.2T925.2,3114v-168.7h26.95Z"/><path class="cls-1" d="M1152.35,3187.45v-242.2h27v242.2Z"/><path class="cls-1" d="M1213.25,2969.4v-24.15h175v24.15H1314.4v218h-26.6v-218Z"/><path class="cls-1" d="M1681.19,3068.1q0,64.76-20.65,93.8t-75.08,29q-54.42,0-75.07-29.75t-20.65-93.62q0-63.87,21-94.85t74.55-31q53.55,0,74.72,30.8T1681.19,3068.1Zm-163.8-.7q0,53.2,14,76.48t54.07,23.27q40.08,0,53.9-22.75t13.83-76.3q0-53.55-14.35-78t-53.73-24.5q-39.37,0-53.55,24.33T1517.39,3067.4Z"/><path class="cls-1" d="M1730.53,3187.45v-242.2h144.9v23.8h-118v94.5h99.75v23.8h-99.75v100.1Z"/><path class="cls-1" d="M1966.42,2969.4v-24.15h175v24.15h-73.85v218H2041v-218Z"/><path class="cls-1" d="M2325.87,3187.45V3077.9h-123.2v109.55h-27v-242.2h27v108.5h123.2v-108.5h26.6v242.2Z"/><path class="cls-1" d="M2412,3187.45v-242.2h147.35v23.8h-120.4v83.65h99.4v23.45h-99.4v87.5h120.4v23.8Z"/><path class="cls-1" d="M2661.16,3187.45l66.5-242.2h58.8l66.5,242.2h-26.6l-17.5-62.3h-103.6l-17.5,62.3Zm86.8-219.1L2711.21,3101h91.7l-36.75-132.65Z"/><path class="cls-1" d="M2891.1,3187.45v-242.2h48.65l68.6,204.75,68.6-204.75h48.65v242.2h-26.95V2974h-4.9L3023.4,3178.7h-30.1L2923,2974h-4.9v213.5Z"/><path class="cls-1" d="M3185.1,3187.45v-242.2h147.35v23.8h-120.4v83.65h99.4v23.45h-99.4v87.5h120.4v23.8Z"/><path class="cls-1" d="M3405.6,3094.7v92.75h-26.95v-242.2h89.6q38.51,0,57.93,17.85t19.42,55.65q0,56-44.45,70.35l46.55,98.35H3518l-43.75-92.75Zm63-23.8q49.35,0,49.35-50.92t-49.7-50.93H3405.6V3070.9Z"/><path class="cls-1" d="M3594.25,3187.45v-242.2h26.95v242.2Z"/><path class="cls-1" d="M3826.64,3183.6q-36,7.35-64.75,7.35t-46.37-7.87a58,58,0,0,1-27.3-24.5,113.55,113.55,0,0,1-13.3-38.15q-3.68-21.53-3.68-53.73t3.68-54.07q3.67-21.87,13.3-38.68a57,57,0,0,1,27.13-24.5q17.49-7.69,45.5-7.7t65.79,7.7l-1,22.75q-35.35-6.3-63-6.3-38.52,0-50.93,22.93t-12.43,78.22q0,27.66,2.28,44.45a97.43,97.43,0,0,0,8.92,30.28q6.64,13.47,19.43,19.25t37.45,5.77q24.67,0,58.28-6.3Z"/><path class="cls-1" d="M3849.39,3187.45l66.5-242.2h58.8l66.5,242.2h-26.6l-17.5-62.3h-103.6l-17.5,62.3Zm86.8-219.1L3899.44,3101h91.7l-36.75-132.65Z"/><path class="cls-1" d="M4143.74,2965.2q-52.5,0-52.5,39.55,0,22,12.08,30.28t49,16.45q36.92,8.22,52.32,21.35t15.4,43.22q0,74.55-77.35,74.55-25.54,0-64-5.95l-12.6-1.75,2.8-22.4q47.59,6.3,72.45,6.3,51.79,0,51.8-48.65,0-19.59-11.37-28.17t-42.53-14.53q-40.95-8.74-58.1-22.57t-17.15-46.38q0-65.1,78-65.1,25.55,0,61.25,5.25l11.9,1.75-2.45,22.75Q4164,2965.21,4143.74,2965.2Z"/><path class="cls-1" d="M1567.39,2573.18c-47.76,4.42-110.6-24.4-190.71-87.2-48-37.59-115.81-90.68-196.22-153.6C842.17,2067.64,276,1624.58,44.3,1438.82c-17.83-14.3-47.22-43.63-44.06-79.45,1.05-12,6.84-34.19,33.71-48.89,146.38-80,579.72-269.19,635.16-277.28,60.55-9.44,127.84,75.1,266.32,268.89,14.69,20.56,29,40.54,42.44,59.07,10.18,14,19.25,27.44,27.93,40.35,25.1,37.34,44.92,66.86,79.51,88.64,45.14,28.45,138.39,46.45,193.81,44.84,38.92-1.06,71.47-17.88,103.17-34.06,7-3.58,13.89-7.07,20.58-10.31,9.84-4.76,19.68-9.23,29.23-13.57,22.64-10.26,53.67-24.33,59.29-33.57,23.91-39.1,57.39-134.91,52.91-182.11-4-42.34-45.82-104.19-82.74-158.77-23.51-34.77-45.71-67.62-60.57-97.95-9.34-19.08-24.36-42.43-38.87-65-35.38-55-63.32-98.51-52.43-136,3.84-13.22,14.29-31.49,42.21-43.41,43.75-18.65,120.6-16.26,161.28,5,45.09,23.58,82.63,72.12,118.94,119,8,10.29,15.9,20.55,23.83,30.43,19.92,24.77,25.18,54.14,29.39,77.74,2,11.32,5.42,30.26,9.38,32.67,20.18,12.23,109.8,21.58,152.7,18.54,4.27-3.6,9.33-15.1,11.08-23.28-17.76-26.88-53.54-73.11-91.23-121.78C1599.14,681.45,1560.64,621,1589.21,577.5c18.82-28.66,52.73-36.45,476.89-80.09,169.35-17.41,361.28-37.16,492.83-57.31C2922,384.47,3279.84,302.44,3582,229.54c175.88-42.44,417.54-119.46,561.92-165.46,27.69-8.82,52.13-16.62,72.23-22.94,11.46-3.59,23.58-7.85,35.94-12.15,68-23.73,138.39-48.33,181.29-5.89,48.17,47.71-9.56,128.45-56,193.32l-3.33,4.68c-35.75,50.07-101.66,126.74-165.41,200.91-39.26,45.67-79.87,92.92-111.44,131.71-21.08,25.9-46.36,58.51-73.07,93-99.9,129-146.88,187-177.51,201.58-42.1,20-419.24,99.64-464.3,97.92-44.43-1.76-69.14-34.49-89-60.81-8-10.54-15.48-20.52-24-28.87-13.39-13.17-41.61-34.75-80-31.34h-.15c-36.1,3.35-76.74,52.91-116,100.84-52.16,63.65-106.13,129.43-182,137.64l-1.12.1c-41.27,3.83-106.37-25.68-208.18-74.53-42-20.17-105.25-50.51-122.8-52.63-92.4,5.79-165.24,55.74-201,136.11-7.63,17.13-12.92,44.48-18.53,73.47-10.32,53.2-22,113.51-55.61,159.57-27.53,37.68-73.52,53.2-114.11,66.87-28.1,9.46-57.16,19.26-71.8,34-15.75,15.87-24,45.36-32.72,76.57-12,42.74-25.49,91.2-63.42,128.77-55.27,54.76-148.43,107.57-230.63,154.17-28.66,16.24-55.75,31.62-79.46,46-109.25,66.37-152.77,104.24-186.26,162.11-31.8,54.91,29.81,219.55,70.58,328.5,51.55,137.81,85.62,228.86,24.37,260.8a88.21,88.21,0,0,1-33.07,9.59M93.62,1372.31c.8.7,1.61,1.39,2.43,2,231.27,185.43,797.22,628.3,1135.35,892.92,80.41,62.94,148.3,116.05,196.26,153.65,65.51,51.36,104.45,66.36,122.68,69.47-4.72-33.11-31.4-104.43-51.68-158.62-54.39-145.4-116.05-310.19-64.7-398.9,45.89-79.26,108.37-126.63,214.89-191.34,24.78-15.06,52.39-30.7,81.6-47.27,77.72-44,165.78-94,213.22-141,22.4-22.18,31.92-56.23,42-92.32,11.21-40,22.75-81.38,53.68-112.53,28.41-28.62,68.6-42.16,104.06-54.11,30.34-10.21,61.7-20.79,73.72-37.29,22.74-31.13,32.56-81.82,41.24-126.55,6.54-33.73,12.7-65.58,24.17-91.33,48.84-109.82,147.66-177.68,272.49-185.09,30.56-1.93,76.77,19.48,162.6,60.66,52.94,25.42,141.55,67.94,164.85,66.76,42.07-4.54,85.13-57.05,126.76-107.83,50.05-61,101.82-124.21,172.33-130.74l.46,0c52.26-4.63,105.21,15.32,145.3,54.76,12.82,12.61,23,26.08,32,38,8.37,11.1,21,27.84,26.32,28,39.58.09,390-74.5,425.77-90.07,19.84-12.73,96.63-111.86,147.41-177.44,27.07-34.92,52.59-67.9,74.31-94.58,32.29-39.66,73.26-87.32,112.88-133.41,62.55-72.76,127.23-148,160.8-195l3.38-4.72c11.6-16.23,42.55-59.49,54.1-85.52-22.38,2.37-61.66,16.09-84.93,24.2-13.21,4.61-26.16,9.13-38.4,13-20,6.27-44.33,14-71.91,22.81-145.45,46.37-388.86,123.94-567.65,167.06-303.83,73.32-663.81,155.83-1029.93,211.9-133.58,20.49-326.61,40.34-496.9,57.86-149.82,15.41-330.65,34-401.44,47.58C1701.83,679,1784.63,786,1832.62,848c45.08,58.21,84,108.49,101.58,137.4,19.68,32.31-4.57,81.9-7.4,87.44-16.07,31.54-41,50.34-70.09,53l-.89.09c-37.46,3-156.91-1.63-204-30.12C1616,1074,1609,1035.28,1604,1007c-3-16.55-5.75-32.18-12.43-40.49-8.28-10.28-16.52-21-24.8-31.65-30.86-39.91-62.79-81.17-91.86-96.36-17-8.92-57.88-10.15-80.25-5.56,8.34,17.34,25.61,44.24,37,62,15.8,24.56,32.1,50,43.57,73.36,12.33,25.16,33,55.68,54.81,88,44.53,65.85,90.57,134,96.56,197.29,7,73.33-37.7,188.92-64.65,233-18.89,30.93-56.18,47.84-95.7,65.77-9,4.06-18.2,8.24-27.43,12.7-6.17,3-12.48,6.22-19,9.51-36.12,18.44-81,41.38-138.31,43.06-70,2.05-179-18.91-240.31-57.52-49.38-31.11-75.93-70.62-104-112.47-8.15-12.1-16.64-24.74-26.16-37.84-13.62-18.7-28-38.87-42.88-59.64-54.29-76-154-215.58-191.26-234.13-55,15.55-417,169-583.28,256.29M2560.09,936.58h0ZM1658.31,622.89l0,0Zm-34.55-22.7.16,0Z"/></g></g></svg>

<svg width="4452" height="2574" viewBox="0 0 4452 2574" fill="none" xmlns="http://www.w3.org/2000/svg">
<g clip-path="url(#clip0_13_731)">
<path d="M1567.39 2573.18C1519.63 2577.6 1456.79 2548.78 1376.68 2485.98C1328.68 2448.39 1260.87 2395.3 1180.46 2332.38C842.169 2067.64 275.999 1624.58 44.2993 1438.82C26.4693 1424.52 -2.9207 1395.19 0.239301 1359.37C1.2893 1347.37 7.0793 1325.18 33.9493 1310.48C180.329 1230.48 613.669 1041.29 669.109 1033.2C729.659 1023.76 796.949 1108.3 935.429 1302.09C950.119 1322.65 964.429 1342.63 977.869 1361.16C988.049 1375.16 997.119 1388.6 1005.8 1401.51C1030.9 1438.85 1050.72 1468.37 1085.31 1490.15C1130.45 1518.6 1223.7 1536.6 1279.12 1534.99C1318.04 1533.93 1350.59 1517.11 1382.29 1500.93C1389.29 1497.35 1396.18 1493.86 1402.87 1490.62C1412.71 1485.86 1422.55 1481.39 1432.1 1477.05C1454.74 1466.79 1485.77 1452.72 1491.39 1443.48C1515.3 1404.38 1548.78 1308.57 1544.3 1261.37C1540.3 1219.03 1498.48 1157.18 1461.56 1102.6C1438.05 1067.83 1415.85 1034.98 1400.99 1004.65C1391.65 985.57 1376.63 962.22 1362.12 939.65C1326.74 884.65 1298.8 841.14 1309.69 803.65C1313.53 790.43 1323.98 772.16 1351.9 760.24C1395.65 741.59 1472.5 743.98 1513.18 765.24C1558.27 788.82 1595.81 837.36 1632.12 884.24C1640.12 894.53 1648.02 904.79 1655.95 914.67C1675.87 939.44 1681.13 968.81 1685.34 992.41C1687.34 1003.73 1690.76 1022.67 1694.72 1025.08C1714.9 1037.31 1804.52 1046.66 1847.42 1043.62C1851.69 1040.02 1856.75 1028.52 1858.5 1020.34C1840.74 993.46 1804.96 947.23 1767.27 898.56C1599.14 681.45 1560.64 621 1589.21 577.5C1608.03 548.84 1641.94 541.05 2066.1 497.41C2235.45 480 2427.38 460.25 2558.93 440.1C2922 384.47 3279.84 302.44 3582 229.54C3757.88 187.1 3999.54 110.08 4143.92 64.08C4171.61 55.26 4196.05 47.46 4216.15 41.14C4227.61 37.55 4239.73 33.29 4252.09 28.99C4320.09 5.25997 4390.48 -19.34 4433.38 23.1C4481.55 70.81 4423.82 151.55 4377.38 216.42L4374.05 221.1C4338.3 271.17 4272.39 347.84 4208.64 422.01C4169.38 467.68 4128.77 514.93 4097.2 553.72C4076.12 579.62 4050.84 612.23 4024.13 646.72C3924.23 775.72 3877.25 833.72 3846.62 848.3C3804.52 868.3 3427.38 947.94 3382.32 946.22C3337.89 944.46 3313.18 911.73 3293.32 885.41C3285.32 874.87 3277.84 864.89 3269.32 856.54C3255.93 843.37 3227.71 821.79 3189.32 825.2H3189.17C3153.07 828.55 3112.43 878.11 3073.17 926.04C3021.01 989.69 2967.04 1055.47 2891.17 1063.68L2890.05 1063.78C2848.78 1067.61 2783.68 1038.1 2681.87 989.25C2639.87 969.08 2576.62 938.74 2559.07 936.62C2466.67 942.41 2393.83 992.36 2358.07 1072.73C2350.44 1089.86 2345.15 1117.21 2339.54 1146.2C2329.22 1199.4 2317.54 1259.71 2283.93 1305.77C2256.4 1343.45 2210.41 1358.97 2169.82 1372.64C2141.72 1382.1 2112.66 1391.9 2098.02 1406.64C2082.27 1422.51 2074.02 1452 2065.3 1483.21C2053.3 1525.95 2039.81 1574.41 2001.88 1611.98C1946.61 1666.74 1853.45 1719.55 1771.25 1766.15C1742.59 1782.39 1715.5 1797.77 1691.79 1812.15C1582.54 1878.52 1539.02 1916.39 1505.53 1974.26C1473.73 2029.17 1535.34 2193.81 1576.11 2302.76C1627.66 2440.57 1661.73 2531.62 1600.48 2563.56C1590.19 2568.9 1578.96 2572.16 1567.41 2573.15M93.6193 1372.31C94.4193 1373.01 95.2293 1373.7 96.0493 1374.31C327.319 1559.74 893.269 2002.61 1231.4 2267.23C1311.81 2330.17 1379.7 2383.28 1427.66 2420.88C1493.17 2472.24 1532.11 2487.24 1550.34 2490.35C1545.62 2457.24 1518.94 2385.92 1498.66 2331.73C1444.27 2186.33 1382.61 2021.54 1433.96 1932.83C1479.85 1853.57 1542.33 1806.2 1648.85 1741.49C1673.63 1726.43 1701.24 1710.79 1730.45 1694.22C1808.17 1650.22 1896.23 1600.22 1943.67 1553.22C1966.07 1531.04 1975.59 1496.99 1985.67 1460.9C1996.88 1420.9 2008.42 1379.52 2039.35 1348.37C2067.76 1319.75 2107.95 1306.21 2143.41 1294.26C2173.75 1284.05 2205.11 1273.47 2217.13 1256.97C2239.87 1225.84 2249.69 1175.15 2258.37 1130.42C2264.91 1096.69 2271.07 1064.84 2282.54 1039.09C2331.38 929.27 2430.2 861.41 2555.03 854C2585.59 852.07 2631.8 873.48 2717.63 914.66C2770.57 940.08 2859.18 982.6 2882.48 981.42C2924.55 976.88 2967.61 924.37 3009.24 873.59C3059.29 812.59 3111.06 749.38 3181.57 742.85H3182.03C3234.29 738.22 3287.24 758.17 3327.33 797.61C3340.15 810.22 3350.33 823.69 3359.33 835.61C3367.7 846.71 3380.33 863.45 3385.65 863.61C3425.23 863.7 3775.65 789.11 3811.42 773.54C3831.26 760.81 3908.05 661.68 3958.83 596.1C3985.9 561.18 4011.42 528.2 4033.14 501.52C4065.43 461.86 4106.4 414.2 4146.02 368.11C4208.57 295.35 4273.25 220.11 4306.82 173.11L4310.2 168.39C4321.8 152.16 4352.75 108.9 4364.3 82.87C4341.92 85.24 4302.64 98.96 4279.37 107.07C4266.16 111.68 4253.21 116.2 4240.97 120.07C4220.97 126.34 4196.64 134.07 4169.06 142.88C4023.61 189.25 3780.2 266.82 3601.41 309.94C3297.58 383.26 2937.6 465.77 2571.48 521.84C2437.9 542.33 2244.87 562.18 2074.58 579.7C1924.76 595.11 1743.93 613.7 1673.14 627.28C1701.83 679 1784.63 786 1832.62 848C1877.7 906.21 1916.62 956.49 1934.2 985.4C1953.88 1017.71 1929.63 1067.3 1926.8 1072.84C1910.73 1104.38 1885.8 1123.18 1856.71 1125.84L1855.82 1125.93C1818.36 1128.93 1698.91 1124.3 1651.82 1095.81C1616 1074 1609 1035.28 1604 1007C1601 990.45 1598.25 974.82 1591.57 966.51C1583.29 956.23 1575.05 945.51 1566.77 934.86C1535.91 894.95 1503.98 853.69 1474.91 838.5C1457.91 829.58 1417.03 828.35 1394.66 832.94C1403 850.28 1420.27 877.18 1431.66 894.94C1447.46 919.5 1463.76 944.94 1475.23 968.3C1487.56 993.46 1508.23 1023.98 1530.04 1056.3C1574.57 1122.15 1620.61 1190.3 1626.6 1253.59C1633.6 1326.92 1588.9 1442.51 1561.95 1486.59C1543.06 1517.52 1505.77 1534.43 1466.25 1552.36C1457.25 1556.42 1448.05 1560.6 1438.82 1565.06C1432.65 1568.06 1426.34 1571.28 1419.82 1574.57C1383.7 1593.01 1338.82 1615.95 1281.51 1617.63C1211.51 1619.68 1102.51 1598.72 1041.2 1560.11C991.819 1529 965.269 1489.49 937.199 1447.64C929.049 1435.54 920.559 1422.9 911.039 1409.8C897.419 1391.1 883.039 1370.93 868.159 1350.16C813.869 1274.16 714.159 1134.58 676.899 1116.03C621.899 1131.58 259.899 1285.03 93.6193 1372.32" fill="white"/>
</g>
<defs>
<clipPath id="clip0_13_731">
<rect width="4452" height="2574" fill="white"/>
</clipPath>
</defs>
</svg>
